X:1
T:Gloria
T:William Byrd
T:CPDL
T:CPDL
T:CPDL
T:CPDL
T:CPDL
T:CPDL
C:Wolfgang Mozart
Z:CPDL
%%score 1 2 3 4
L:1/8
Q:1/4=200
M:8/4
K:Ab
V:1 treble nm="Soprano" snm="S."
V:2 treble-8 nm="Alto" snm="A."
V:3 treble-8 nm="Tenor" snm="T."
V:4 bass nm="Bass" snm="B."
V:1
 z16 | z8 c8- | c4 G4 B8 | A8 G8 | z4 G4 c6 c2 | F4 A8 G4 | E2 F2 G4- G2 F2 F4- | F4 =E4 F8 | %8
w: |Et~|* in~ ter|ra~ pax~|ho mi ni|bus~ bo nae~|vo lun ta * * *|* * tis.~|
 z12 c2 c2 | B4 G4 A8 | G4 z4 z4 F4 | G4 =A4 B4 d4 | c8 z4 F4 | A6 B2 c4 d4 | c4 B2 d2- d2 c2 B4 | %15
w: Be ne|di ci mus~|te.~ Glo|ri fi ca mus~|te,~ glo|ri fi ca mus~|te,~ glo ri * fi ca|
 =A4 B8 A4 | B8 z4 B4- | B2 B2 B4 c6 c2 | c8 d8 | c4 c8 B4 | A4 G4 A2 A2 B4 | c8 A4 c4- | %22
w: mus~ * *|te.~ Gra|* ti as~ a gi|mus~ ti|bi~ pro pter~|ma gnam~ glo ri am~|tu am,~ pro|
 c4 B4 A4 G4 | A2 A2 B4 c8 | =A8 z8 | z8 z4 c4- | c2 c2 d4 B8 | A4 c8 B4 | c4 F4 A4 G4 | %29
w: * pter~ ma gnam~|glo ri am~ tu|am.~|Do|* mi ne~ De|us,~ Rex~ coe|le * * *|
 F4 =E4 F8 | z4 E8 F4 | G4 E4 F4 A4- | A4 G4 A8- | A8 z8 | z16 | z16 | z8 A8 | B8 c4 A4 | %38
w: * * stis,~|De us~|Pa ter~ o mni|* po tens,~||||De|us~ Pa ter~|
 c4 e8 =d4 | e8 z4 c4- | c2 c2 G4 A8 | G4 A8 B4 | c6 c2 F8 | z8 z4 B4- | B2 A2 A8 G4 | A8 z8 | %46
w: o mni po|tens.~ Do|* mi ne~ Fi|li~ u ni|ge ni te,~|Je|* su~ Chri *|ste,~|
 z4 A4- A2 G2 G4- | G4 F4 G8 | z16 |[M:3/1] z4 A4- A2 G2 G8 F4 |[M:4/2] G16 | z16 | z16 | z16 | %54
w: Je * su~ Chri|* * ste,~||Je * su~ Chri *|ste.~||||
 z16 | z16 | z16 | z16 | z16 | z16 | z16 |[M:3/1] z24 |[M:4/2] z4 B4 e8 | c4 e4 d4 c4 | %64
w: ||||||||Qui~ tol|lis~ pec ca ta~|
 B2 c2 d4 c8 | z8 z4 A4- | A4 G4 F4 E4 | A4 B4 c4 d4 | c8 z8 | z8 z4 c4- | c4 B4 A4 G4 | %71
w: mun * * di:~|mi|* se re re~|no * * *|bis,~|mi|* se re re~|
 c4 d4 e6 d2 |[M:3/1] c2 B2 A4- A2 B2 c4 d8 |[M:4/2] c16 | z4 A4 c4 F4 | A4 G8 E4 | B8 E8 | %77
w: no * * *||bis.~|Qui~ tol lis~|pec ca ta~|mun di:~|
 z4 B4- B2 B2 F4 | G4 E4 G6 A2 | B8 A4 c4- | c2 B2 A2 B2 c2 A2 B4 | A16 | z4 e4- e2 e2 B4 | %83
w: sus * ci pe~|de pre ca ti|o nem~ no||stram,~|sus * ci pe~|
 c4 A4 c6 d2 | e8 c4 d4- | d2 c2 A2 B2 c2 A2 B4- | B2 A2 A8 G4 | A8 z4 A4 | B8 G8 | z4 B4 e6 e2 | %90
w: de pre ca ti|o nem~ no|||stram,~ Qui~|se des~|ad~ dex te|
 c4 d4 c4 B4- | B2 E2 A4 G8 | z16 | z8 B2 c2 d4 | c4 e4- e2 A2 d4 | c4 B4 B8 | z4 B8 c4 | %97
w: ram~ Pa * *|* * * tris:~||mi se re|re~ no * * *|* * bis.~|Quo ni|
 B4 E4 A4 G4 | F8 G8 | z8 B8 | c6 B2 A4 F4 | B8 z4 G4 | A6 G2 F4 G4 | G8 z8 | z4 B8 c4- | %105
w: am~ tu~ so lus~|San ctus,~|tu~|so lus~ Do mi|nus,~ tu~|so lus~ Do mi|nus,~|tu~ so|
 c2 c2 =d4 e6 _d2 | c2 B2 A8 G4 | B4 B4 c8 | z4 B4 c6 c2 | =d4 e4- e2 d2 c4 | _c8 =c6 B2 | %111
w: * lus~ Al tis *||* si mus,~|tu~ so lus~|Al tis * * si|mus,~ Je su~|
 A4 G8 F4 | G16 | z8 z4 A4 | B4 c4 d6 d2 | c8 z4 c4 | A6 A2 G4 B4 | E4 A8 G4 | A8 z4 e4 | %119
w: Chri * *|ste,~|cum~|San cto~ Spi ri|tu~ in~|glo ri a~ De|i~ Pa *|tris,~ in~|
 c6 c2 A4 c4- | c2 B2 A2 G2 A2 F2 c4- | c4 B4 c8 | c12 d4 |[M:3/1] c8 c8 z4 c4- | %124
w: glo ri a~ De|* i~ Pa * * * *|* * tris,~|De i~|Pa tris.~ A|
[M:4/2] c2 B2 A2 G2 A4 F4 | B4 d4- d2 c2 c4- | c2 B2 B8 =A2 G2 |[M:16/4] =A24 z8 || %128
w: |men.~ A * * *||men.~|
V:2
 z16 | f12 c4 | e8 d8 | c8 z4 c4 | e6 e2 A8 | d6 c2 A4 B4 | c6 B2 A4 B4 | G8 F8 | z12 c2 c2 | %9
w: |Et~ in~|ter ra~|pax~ ho|mi ni bus~|bo nae~ vo lun|ta * * *|* tis.~|Be ne|
 d4 e4 f8 | c8 z4 d4 | e4 f4 d4 B4 | c8 z8 | z4 F4 A6 B2 | c4 d4 A4 f4 | f4 e4 f6 e2 | =d8 z4 f4- | %17
w: di ci mus~|te.~ Glo|ri fi ca mus~|te,~|glo ri fi|ca mus~ te,~ glo|ri fi ca mus~|te.~ Gra|
 f2 f2 g4 a6 a2 | a8 b8 | =a4 _a8 g4 | f4 e4 f2 f2 d4 | c8 F8 | z8 z4 c4- | c2 F2 f4 =e8 | %24
w: * ti as~ a gi|mus~ ti|bi~ pro pter~|ma gnam~ glo ri am~|tu am~|glo|* ri am~ tu|
 f8 z4 f4- | f2 f2 g4 a8 | f4 f8 =e4 | f4 c4 d8 | c8 F4 G4 | A6 G2 F8 | G8 c6 =d2 | %31
w: am,~ Do|* mi ne~ De|us,~ Rex~ coe|le * *|stis,~ Rex~ coe|le * *|stis,~ De us~|
 e4 B2 c2 d6 c2 | B4 B4 A8 | z8 z4 e4- | e4 f4 g4 e4 | f4 a8 g4 | a4 f8 e4 | d4 B4 z4 e4 | %38
w: Pa ter~ o mni *|* po tens,~|De|* us~ Pa ter~|o mni po|tens,~ De us~|Pa ter~ o|
 a4 g4 f8 | g6 g2 c4 e4- | e4 B4 c4 =d4 | e6 e2 A4 f4- | f2 e2 e8 =d4 | e4 f8 f4 | f4 e4 z8 | %45
w: mni po tens,~|Do mi ne~ Fi|* li~ u ni|ge ni te~ Je|* su~ Chri *|ste,~ Je su~|Chri ste,~|
 z4 f4- f2 e2 e4- | e4 =d4 e8 | z8 z4 g4- | g2 f2 f8 =e4 |[M:3/1] f2 f4 e2 e8 c6 =d2 | %50
w: Je * su~ Chri|* * ste,~|Je|* su~ Chri *|ste,~ Je su~ Chri * *|
[M:4/2] =e16 | f6 f2 c4 d4- | d4 c4 e4 f4 | a8 g8 | c8 c4 f4- | f4 f4 z4 f4- | f2 f2 e4 d4 c4 | %57
w: ste.~|Do mi ne~ De|* us~ A gnus~|De i,~|A gnus~ De|* i,~ Fi|* li us~ Pa *|
 e6 fg a4 g4 | f8 z4 b4- | b2 b2 a4 g4 f4 | a4 g4 f8 |[M:3/1] e4 f8 g4 a8 |[M:4/2] g8 z4 e4 | %63
w: |tris,~ Fi|* li us~ Pa *||tris,~ Pa * *|tris:~ Qui~|
 a8 f4 a4 | g4 f4 e3 d c2 B2 | A2 B2 c4 B2 c2 d4 | c4 B4 A8 | z8 z4 f4- | f4 e4 d4 c4 | %69
w: tol lis~ pec|ca ta~ mun * * *||* * di:~|mi|* se re re~|
 f4 g4 a6 g2 | f2 e2 d4 e8 | a6 a2 g4 c4 |[M:3/1] e6 de f2 g2 a8 g4 |[M:4/2] a16 | z16 | z16 | %76
w: no * * *|* * * bis,~|mi se re re|no * * * * * *|bis.~|||
 z16 | z16 | z16 | z16 | z16 | z16 | z16 | z16 | z16 | z16 | z16 | z4 e4 a8 | f4 f4 b6 b2 | %89
w: |||||||||||Qui~ se|des~ ad~ dex te|
 g12 a4- | a2 g2 f4 g8 | e8 z8 | f2 g2 a4 g4 b4- | b2 f2 a4 g4 f4- | f2 e2 c4 e4 A2 B2 | %95
w: ram~ Pa|_ _ _ _|tris:~|mi- se re- re~ no||* * * bis,~ mi se|
 c2 d2 e8 =d4 | e16- | e8 z8 | B12 c4 | B4 A4 G4 E4 | A4 G4 F8 | z4 B4 c6 B2 | A4 F4 B8 | %103
w: re re~ no *|bis.~||Quo ni|am~ tu~ so lus~|San * ctus,~|tu~ so lus~|Do mi nus,~|
 z4 g4 a6 g2 | f4 f4 g8 | z16 | z16 | z8 z4 e4- | e4 g4- g2 g2 =a4 | b6 a2 g2 f2 e4 | %110
w: tu~ so lus~|Do mi nus,~|||tu|_ so * lus~ Al|tis si * * *|
 =d4 e4- e2 d2 c4- | c4 G4 c6 =d2 | =e8 z4 _e4 | f4 g4 a6 a2 | g4 a4 f6 f2 | e4 e4 c4 e4- | %116
w: mus,~ Je~\-~ _ su~ *||ste,~ cum~|San cto~ Spi ri|tu~ in~ glo ri|* De- i Pa~\-~~|
 e4 =d4 e8 | z8 z4 e4 | c6 c2 A8 | e6 e2 f4 a4 | g4 z8 a4 | f6 f2 =e4 g4- | %122
w: _ _ tris|in~|glo- ri- a~|De- i~ Pa *|tris,~ in~|glo- ri- a~ De~\-~|
 g2 f2 =e2 =d2 e2 c2 f4- |[M:3/1] f4 =e2 =d2 e2 g2 f8 e4 |[M:4/2] f16 | z4 f4- f2 e2 d2 c2 | %126
w: _ i~ Pa~\-~ _ _ _ _|_ _ _ _ _ _ _|tris.~|A * * * *|
 d4 B4 f8- |[M:16/4] f24 z8 || %128
w: * * men.~||
V:3
 z16 | z16 | z16 | z16 | z16 | z16 | z16 | z12 c4 | d4 e4 f8 | z8 z4 F2 F2 | G4 =A4 B8 | z8 z4 F4 | %12
w: |||||||Lau|da mus~ te.~|A do|ra mus~ te.~|Glo|
 G4 =A4 B4 d4 | c8 z4 F4 | A4 B4 F4 d4 | c4 B4 c8 | B8 z4 d4- | d2 d2 e4 e6 e2 | f8 f8 | f8 z8 | %20
w: ri fi ca mus~|te,~ glo|ri fi ca mus~||te.~ Gra|* ti as~ a gi|mus~ ti|bi~|
 z8 z4 f4- | f4 e4 d4 c4 | A2 A2 B4 c8- | c4 F4 G8 | z4 c4- c2 c2 d4 | B8 A8 | z16 | z4 F8 G4 | %28
w: pro|* pter~ ma gnam~|glo ri am~ tu|* * am.~|Do * mi ne~|De us,~||Rex~ coe|
 A6 B2 c8 | z4 c8 B4 | c4 G4 A8 | G8 z8 | z16 | A8 B8 | c4 A4 B4 c4 | d6 c2 B4 B4 | A8 z8 | %37
w: le * stis,~|rex~ coe|le\-~ _ _|stis,~||De us~|Pa ter~ o *|mni * * po|tens,~|
 B4 e4- e2 d2 c2 B2 | A4 B4 z4 B4- | B2 B2 G4 A8 | E8 z8 | c6 c2 F8 | A4 G4 A4 B4 | c6 c2 F4 d4- | %44
w: o mni * po * *|* tens.~ Do|* mi ne~ Fi|li,~|Do mi ne~|Fi li~ u ni|ge ni te~ Je|
 d2 A2 c4 B8 | A8 c6 G2 | A4 F4 C8 | z4 c4- c2 B2 B4- | B4 A4 G8 |[M:3/1] .F8 c6 B2 A8 | %50
w: * su~ Chri *|ste,~ Je su~|Chri * ste,~|Je * su~ Chri||ste,~ Je su~ Chri|
[M:4/2] G16 | z16 | z16 | z4 c4- c2 c2 G4 | A4 F4 A8 | B4 d4- d2 c2 B2 A2 | G2 F2 G4 F8 | %57
w: ste.~|||Do * mi ne~|De us,~ A|gnus~ De * * * *|* * * i,~|
 z8 z4 c4- | c2 c2 B4 A4 G4 | B4 e4- e2 e2 d4 | c4 B4 d4 c4 |[M:3/1] B4 A2 B2 c2 d2 e8 =d4 | %62
w: Fi|* li us~ Pa *|tris,~ Pa * tris,~ Fi|li * * *|us~ Pa * * * * *|
[M:4/2] e16 | z16 | z16 | z16 | z16 | z16 | z16 | z16 | z16 | z16 |[M:3/1] z24 | %73
w: tris:~|||||||||||
[M:4/2] z4 e4 f4 c4 | d4 c8 A4 | e8 c8 | z4 d4 c4 B4 | e8 =d8 | z8 z4 e4- | e2 e2 B4 c4 A4 | %80
w: Qui~ tol lis~|pec ca ta~|mun di,~|pec ca ta~|mun di:~|sus|* ci pe~ de pre|
 c6 d2 e8 | c4 d4- d2 c2 A2 B2 | c2 A2 B4 c4 d4 | e4 f4- f2 f2 e4 | c4 e4 a4 f4 | %85
w: ca ti o|nem~ no * * * *||stram,~ sus * ci pe~|de pre ca ti|
 a6 g2 e2 f2 e2 d2 | c2 e2 d2 c2 B2 A2 B4 | c8 z4 c4 | =d8 e4 B4 | e6 e2 c8 | A4 B4- B2 A2 G4 | %91
w: o nem~ no * * *||stram,~ Qui~|se des~ ad~|dex te ram~|Pa * * * *|
 c8 B4 B2 c2 | d4 c4 e6 B2 | d4 c4 B8 | A4 A2 B2 c4 f4 | e4 g4 f8 | z4 g8 a4 | g4 g4 f4 e2 e2- | %98
w: * tris:~ mi se|re re~ no *||bis,~ mi se re re~|no * bis.~|Quo ni|am~ tu~ so lus~ San|
 e2 =dc d4 e8 | z16 | z8 f8 | g6 f2 e4 c4 | f8 z4 =d4 | e6 =d2 c4 c4 | =d8 e8 | f6 f2 g4 a4- | %106
w: * * * * ctus,~||tu~|so lus~ Do mi|nus,~ tu~|so lus~ Do mi|nus,~ tu~|so lus~ Al tis|
 a2 g2 f4 e8 | f4 g4- g2 f2 g4 | c4 =d4 e6 e2 | f4 g8 g4 | g8 z8 | c6 B2 A8 | G8 z4 c4 | %113
w: * * si mus,~|Al tis * si *|mus,~ tu~ so lus~|Al tis si|mus,~|Je su~ Chri|ste,~ cum~|
 d4 B4 A6 A2 | e8 z8 | z8 e4 c4- | c2 c2 A4 B4 G4 | c8 B8 | z4 e4 c6 c2 | A4 c8 A4 | e4 c4 c8 | %121
w: San cto~ Spi ri|tu~|in~ glo|* ri a~ De i~|Pa tris,~|in~ glo ri|a~ De i~|Pa * tris,~|
 z8 z4 c4 | A6 A2 G4 B4- |[M:3/1] B2 A2 G2 F2 G2 E2 A4 G8 |[M:4/2] F8 c4 d4 | B8 F8 | z4 d8 c2 B2 | %127
w: in~|glo ri a~ De|* * * * * * i~ Pa|tris.~ A *|* men.~|A * *|
[M:16/4] c24 z8 || %128
w: men.~|
V:4
 z16 | z16 | z16 | z16 | z16 | z16 | z16 | z12 A,4 | B,4 C4 F,8 | z8 z4 D,2 D,2 | E,4 F,4 B,,8 | %11
w: |||||||Lau|da mus~ te.~|A do|ra mus~ te.~|
 z8 z4 B,,4 | E,4 F,4 D,4 B,,4 | F,16 | z4 B,,4 D,6 E,2 | F,4 _G,4 F,8 | B,,8 z4 B,4- | %17
w: Glo|ri fi ca mus~|te,~|glo ri fi|ca mus~ *|te.~ Gra|
 B,2 B,2 E,4 A,6 A,2 | F,8 B,8 | F,8 z8 | z16 | z8 z4 A,4- | A,4 G,4 F,4 E,4 | F,2 F,2 D,4 C,8 | %24
w: * ti as~ a gi|mus~ ti|bi~||pro|* pter~ ma gnam~|glo ri am~ tu|
 F,16 | z8 z4 A,4- | A,2 A,2 B,4 G,8 | F,8 z8 | z4 F,8 =E,4 | F,4 C,4 D,8 | C,8 z8 | z8 z4 D,4- | %32
w: am.~|Do|* mi ne~ De|us,~|Rex~ coe|le * *|stis,~|De|
 D,4 E,4 F,4 D,4 | F,4 A,8 G,4 | A,8 z8 | z4 D,8 E,4 | F,4 D,4 F,4 A,4- | A,4 G,4 A,8 | %38
w: * us~ Pa ter~|o mni po|tens,~|De us~|Pa ter~ o mni|* po tens,~|
 z4 E,4 B,6 B,2 | E,8 z8 | z8 F,6 F,2 | C,8 D,8 | C,8 z8 | z4 F,4- F,2 F,2 B,,4 | D,4 C,4 D,4 E,4 | %45
w: o mni po|tens,~|Do mi|ne~ Fi|li,~|Do * mi ne~|Fi li~ u ni|
 F,6 F,2 C,8 | z8 C6 G,2 | B,4 A,4 G,8 | E,4 F,4 C,8 |[M:3/1] D,6 C,2 C,8 F,8 |[M:4/2] C,16 | z16 | %52
w: ge ni te~|Je su~|Chri * ste,~|Chri * ste,~|Je su~ Chri *|ste.~||
 F,6 F,2 C,4 D,4- | D,4 C,4 E,8 | F,4 A,4- A,2 G,2 F,2 E,2 | D,2 C,2 B,,4 F,8 | C,8 z4 A,4- | %57
w: Do mi * *|* us,~ A|gnus~ De * * * *||i,~ Fi|
 A,2 A,2 G,4 F,4 E,4 | D,8 C,4 E,4 | D,4 C,4 B,,8 | z4 B,4- B,2 B,2 A,4 | %61
w: * li us~ Pa *|* tris,~ Pa|* * tris,~|Fi * li us~|
[M:3/1] G,4 F,4 A,4 G,4 F,8 |[M:4/2] E,16 | z16 | z4 D,4 A,8 | F,4 A,4 G,4 F,4 | E,8 F,2 G,2 A,4- | %67
w: Pa~\-~ _ _ _ _|tris:~||Qui~ tol|lis~ pec ca ta~|mun * * *|
 A,4 G,4 A,4 F,4 | A,8 z4 A,4- | A,4 G,4 F,4 E,4 | A,4 B,4 C6 B,2 | A,2 G,2 F,4 E,4 A,4- | %72
w: |di:~ mi|* se re re~|no * * *|* * * bis,~ mi|
[M:3/1] A,2 B,2 C4 D4 C4 B,8 |[M:4/2] A,16 | F,16 | C16 | B,8 A,4 G,,4- | G,,4 E,4 B,8 | E,16 | %79
w: * ae re re~ no *|bis.~|Qui~|tol-|lis~ pec- ca|_ ta~ mun|di:~-|
 z16 | z4 A,4- A,2 A,2 E,4 | F,4 D,4 F,6 G,2 | A,4 G,4 A,4 B,4 | A,8 z4 A,4- | %84
w: |sus * ci pe~|de pre ca ti|o nem~ no *|stram,~ sus|
 A,2 A,2 E,4 F,4 D,4 | F,6 G,2 A,4 G,4 | A,4 D,4 E,8 | A,8 z4 F,4 | B,8 E,8 | z16 | %90
w: * ci pe~ de pre|ca ti o nem~|no * *|stram.~ Qui~|se des~||
 z4 B,,4 E,6 E,2 | C,8 E,8 | F,8 E,8 | z16 | z8 z4 F,2 G,2 | A,4 G,4 B,8 | E,16- | E,8 z8 | %98
w: ad~ dex te|ram~ Pa|* tris:~||mi se|re re~ no|bis.~||
 z8 E,8- | E,4 F,4 E,4 G,4 | F,4 E,2 E,2- E,2 =D,C, D,4 | E,8 z8 | z8 z4 G,4 | C6 B,2 A,4 F,4 | %104
w: Quo|* ni am~ tu~|so lus~ San * * * *|ctus,~|tu~|so lus~ Do mi|
 B,8 z8 | z16 | A,8 C6 C2 | =D4 E4- E2 _D2 C2 B,2 | A,4 G,4 C6 C2 | B,4 G,4 C6 C2 | G,8 A,6 G,2 | %111
w: nus,~||tu~ so lus~|Al tis * * * *|* * * si|mus,~ Al tis si|mus,~ Je su~|
 F,4 =E,4 F,8 | C,16 | z8 z4 F,4 | E,4 A,4 D,6 D,2 | A,8 z4 A,4 | F,6 F,2 E,4 E,4- | E,4 C,4 E,8 | %118
w: Chri * *|ste,~|cum~|San cto~ Spi ri|tu~ in~|glo- ri- a De~\-~|_ i~ Pa|
 A,,16 | z4 A,4 F,6 F,2 | E,4 F,8 C,4 | D,8 C,8 | C,12 B,,4 |[M:3/1] C,16 C,8 | %124
w: tris,~|in~ glo ri|a~ De i~|Pa tris,~|De i~|Pa tris.~|
[M:4/2] z4 F,4- F,2 E,2 D,2 C,2 | D,2 B,,2 B,8 =A,4 | B,8 F,8- |[M:16/4] F,24 z8 || %128
w: A * * * *||* men.~||

